X: 8696
T: Crow In The Sun, The
R: reel
M: 4/4
K: Fmajor
|:FG|A2 cA BA G>F|D2 C2 A,3 F/G/|A3 c dcBA|AB G2 G2 G>A|
BFBc dc d<e|fcfa g2 fe|dcfc BA G>F|D2 E2 F2:|
|:zf|d<c fc c2 Ac|c2 fa g3 g/a/|bB d<b aA c<a|gfed c2 c/d/e|
dcBA c2 F/G/A|BA G>F D2 C>B,|A,CFA G<B E<G|F6:|

